X: 18
T: Ashir Lachem
C: Eltan Kantor 1991
O: Israel
F: http://www.youtube.com/watch?v=UEHDPAbKyeI
M: 2/4
L: 1/8
K: Bm
zBcd|e3d/c/|d3/2c/ d/c/B|d3/2c/ df|ez2e|\
e3d/c/|d3/3cB2|c2BA|ee3|d/c/Bz2:|
|:zd3/2c/|BFFD|E3/2G/ FD|E3/2G/ FD|\
zA/B/ cB/A/|B2F2|zA/B/ cB/A/|[1d2c2:|[2 B2 z2|
|:z2Bc|d2e2|c2z2|_B3/2=B/ ce|dc Bz|\
ffed|e3/2d/ cz|[1ee de|f2z2:|[2ee dc|B2z2|



